X: 74
T:The Old Camerionian
R:reel
C:Ed Reavy
M:2/2
L:1/8
Z:Joe Reavy
N:Ed's setting of a very old tune. Just how much he altered the reel 
N:over the years is hard to say now. Some of his later compositions are 
N:traceable to the fine strains of this old tune.
K:F
A=B|cF (3FFF cFAF|cF (3FFF cFAc|=BGG^F GABc|dG (3GGG dcA=B|
cF (3FFF cFAF|cF (3FFF cFAc|=BGG^F GABc|dG (3GGG dcAG|
Ffeg fdcA|Ffeg fdcA|Gg^fa gbag|=fage fedc|Ffeg fdcA|
Ffeg fdcf|egcg ^fade|1=f2 ag fed=B:|2=f2 ag f2||
